build/system/VideoCSSolid.svg

<svg xmlns="http://www.w3.org/2000/svg" fill="none" viewBox="0 0 24 24" focusable="false"><path d="M0 0H24V24H0z"/><path fill="#74767B" fill-rule="evenodd" d="M12.2505 6L5.40039 6C3.74365 6 2.40039 7.34326 2.40039 9L2.40039 15C2.40039 16.6567 3.74365 18 5.40039 18L12.2505 18C13.9072 18 15.2505 16.6567 15.2505 15L15.2505 9C15.2505 7.34326 13.9072 6 12.2505 6ZM20.042 8.10474L17.3418 9.25098C16.8613 9.45483 16.5498 9.92603 16.5498 10.4475L16.5498 13.2268C16.5498 13.7483 16.8613 14.2195 17.3418 14.4233L20.042 15.5696C20.8994 15.9336 21.8501 15.3044 21.8501 14.373L21.8501 9.30127C21.8501 8.36987 20.8994 7.74072 20.042 8.10474ZM8.2002 9.22852L11.0498 10.874C11.9165 11.3745 11.9165 12.6255 11.0498 13.126L8.2002 14.7715C7.44189 15.209 6.51758 14.7852 6.29834 14.0015C6.26709 13.8896 6.25 13.7705 6.25 13.6455L6.25 10.3545C6.25 10.2842 6.25537 10.2163 6.26562 10.1499C6.2915 9.97998 6.3501 9.82373 6.43262 9.68604C6.49756 9.57861 6.57715 9.48193 6.66846 9.39844C6.98242 9.11133 7.43115 8.98047 7.86719 9.09229C7.97998 9.12109 8.0918 9.16602 8.2002 9.22852Z"/></svg>

<svg xmlns="http://www.w3.org/2000/svg" fill="none" viewBox="0 0 24 24" focusable="false"><path fill="#74767B" fill-rule="evenodd" d="M12.25 6H5.4c-1.66 0-3 1.34-3 3v6c0 1.65 1.34 3 3 3h6.85c1.65 0 3-1.35 3-3V9c0-1.66-1.35-3-3-3m7.79 2.1-2.7 1.15c-.48.2-.8.67-.8 1.19v2.78c0 .52.32.99.8 1.2l2.7 1.14c.85.37 1.81-.26 1.81-1.19V9.3c0-.94-.96-1.56-1.81-1.2M8.2 9.22l2.84 1.65c.87.5.87 1.75 0 2.25L8.2 14.77c-.76.43-1.69.01-1.91-.77a1.4 1.4 0 0 1-.04-.36v-3.29c0-.07 0-.14.01-.21.03-.17.09-.32.17-.46.06-.11.14-.2.23-.29.32-.28.77-.41 1.2-.3.11.03.23.07.34.13"/></svg>
